X: 0
T: The Noble Shirbe
Z: English Melody of the 16th Century
Z: Copyright © 2004 by Douglas D. Anderson
Z: Released To The Public Domain
L: 1/4
M: 6/8
Q: 1/4=70
V: P1 name="Staff"
%%MIDI program 1 19
K: G
[V: P1]  (B/4 c/4) | d e/ d d/ | c3/ B3/ | A B/ G B/ | A B/ G (B/4 c/4) | d e/ d d/ | c3/ B3/ | A B/ A G/ | (G3/ G) (A/4 B/4) | c d/ c G/ | c d/ c G/ | c e/ d c/ | d3/ B3/ | c3/ E F/ | G A/ B c/ | d B/ d B/ | A3/ G|]
w: Come,_ lis- ten to my sto- ry, Chris- tus na- tus ho- di e: Born_ is the King of glo- ry; Rex de Vir- gi ne._ No-_ well, No- well, good news I tell, God comes on earth a stran- ger E- ya! Em- man u el Lies cra- dled in a man- ger.

